rospo-icon-theme-classic-common/64x64/mimetypes/application-vnd.recordare.musicxml+xml.svg

<svg height="64" viewBox="0 0 64 64" width="64" xmlns="http://www.w3.org/2000/svg"><path d="m14.5 8.0000003c-1.385 0-2.5 1.115-2.5 2.4999997v45c0 1.385 1.115 2.5 2.5 2.5h35c1.385 0 2.5-1.115 2.5-2.5v-32.5l-13.75-1.25-1.25-13.7499997z" opacity=".2"/><path d="m14.5 7c-1.385 0-2.5 1.115-2.5 2.5v45c0 1.385 1.115 2.5 2.5 2.5h35c1.385 0 2.5-1.115 2.5-2.5v-32.5l-13.75-1.25-1.25-13.75z" fill="#e4e4e4"/><path d="m37 8.0000003v12.4999997c0 1.3808 1.1193 2.5 2.5 2.5h12.5z" opacity=".2"/><path d="m37 7v12.5c0 1.3808 1.1193 2.5 2.5 2.5h12.5z" fill="#fafafa"/><path d="m26 26v14.42a5 5 0 0 0 -2-.42 5 5 0 0 0 -5 5 5 5 0 0 0 5 5 5 5 0 0 0 4.9961-4.9082l.004-.008v-13.084h11v8.4199a5 5 0 0 0 -2-.42 5 5 0 0 0 -5 5 5 5 0 0 0 5 5 5 5 0 0 0 4.9883-4.75l.012-.023v-19.227h-17z" opacity=".5"/><path d="m14.5 7.0000003c-1.385 0-2.5 1.115-2.5 2.5v.9999997c0-1.3849997 1.115-2.4999997 2.5-2.4999997h22.5c0-1 0 0 0-1z" fill="#fff" opacity=".2"/></svg>

<svg xmlns="http://www.w3.org/2000/svg" width="64" height="64" version="1.1" viewBox="0 0 64 64">
 <path style="opacity:0.2" d="m 14.5,8.0000003 c -1.385,0 -2.5,1.115 -2.5,2.4999997 l 0,45 c 0,1.385 1.115,2.5 2.5,2.5 l 35,0 C 50.885,58 52,56.885 52,55.5 L 52,23 38.25,21.75 37,8.0000003 Z"/>
 <path style="fill:#cccccc" d="M 14.5,7 C 13.115,7 12,8.115 12,9.5 l 0,45 c 0,1.385 1.115,2.5 2.5,2.5 l 35,0 C 50.885,57 52,55.885 52,54.5 L 52,22 38.25,20.75 37,7 Z"/>
 <path style="opacity:0.2" d="M 37,8.0000003 37,20.5 c 0,1.3808 1.1193,2.5 2.5,2.5 L 52,23 Z"/>
 <path style="fill:#ebebeb" d="m 37,7 0,12.5 c 0,1.3808 1.1193,2.5 2.5,2.5 L 52,22 37,7 Z"/>
 <path style="opacity:0.5" d="m 26,26 0,14.42 A 5,5 0 0 0 24,40 a 5,5 0 0 0 -5,5 5,5 0 0 0 5,5 5,5 0 0 0 4.9961,-4.9082 l 0.004,-0.008 0,-13.084 11,0 0,8.4199 a 5,5 0 0 0 -2,-0.42 5,5 0 0 0 -5,5 5,5 0 0 0 5,5 5,5 0 0 0 4.9883,-4.75 l 0.012,-0.023 0,-19.227 -17,0 z"/>
 <path style="opacity:0.2;fill:#ffffff" d="m 14.5,7.0000003 c -1.385,0 -2.5,1.115 -2.5,2.5 L 12,10.5 c 0,-1.3849997 1.115,-2.4999997 2.5,-2.4999997 l 22.5,0 c 0,-1 0,0 0,-1 z"/>
</svg>
